X: 29635
T: North Wind, The
R: jig
M: 6/8
K: Amixolydian
|:Ace a2b|aec Ace|gfe def|gfe dBA|
Ace aeb|aec Ace|gfe dBA|GAB ~A3:|
|:Acd ~e3|fed ~e3|ged edB|dBA BAG|
Acd ~e3|fed ~e3|gfe dBA|GAB ~A3:|

